X:1
T:Good News, 86.86.88.86
T:Good News, 86.86.88.86
T:Old Melody
T:Public Domain Courtesy of the Cyber Hymnal™
C:Old Melody
Z:Public Domain
Z:Courtesy of the Cyber Hymnal™
%%score ( 1 2 ) 3
L:1/8
Q:1/4=101
M:6/8
K:Ab
V:1 treble 
V:2 treble 
V:3 bass 
V:1
 E | [EA]2 [EG] [EA]2 [GB] | [Ac]2 [Bd] [ce]3 | [Gd]2 [Ac] [FB]2 [Bd] | [Ac]2 [GB] A2 E | %5
 [EA]2 [EG] [EA]2 [GB] | [Ac]2 [Bd] [ce]3 | [Gd]2 [Ac] [FB]2 [Bd] | [Ac]2 [GB] A2 [Ac] | %9
 [Ae]2 [Ge] [Ae]2 [Ac] | [Gd]2 [Ad] [Bd]2 [GB] | [Ac]2 [Ac] ([Ae][Gd])[Ac] | [EB]2 [AB] [GB]2 E | %13
 [EA]2 [EG] [EA]2 [GB] | [Ac]2 [Bd] [ce]3 | [Gd]2 [Ac] [FB]2 [Bd] | [Ac]2 [GB] A2 |] %17
V:2
 E | x6 | x6 | x6 | x3 A2 E | x6 | x6 | x6 | x3 A2 x | x6 | x6 | x6 | x5 E | x6 | x6 | x6 | %16
 x3 A2 |] %17
V:3
 [A,C] | [A,C]2 [B,D] [CE]2 [E,E] | [A,E]2 [A,E] [A,E]3 | [B,E]2 [A,E] [D,D]2 [B,,F] | %4
 [E,E]2 [E,D] [A,,C]2 [A,C] | [A,C]2 [B,D] [CE]2 [E,E] | [A,E]2 [A,E] [A,E]3 | %7
 [B,E]2 [A,E] [D,D]2 [B,,F] | [E,E]2 [E,D] [A,,C]2 [A,E] | [A,C]2 [B,D] [CE]2 [A,E] | %10
 [E,E]2 [F,E] [G,E]2 [E,E] | [A,E]2 [A,E] ([CE][B,E])[A,E] | [G,E]2 [F,=D] [E,E]2 [G,D] | %13
 [A,C]2 [B,D] [CE]2 [E,E] | [A,E]2 [A,E] [A,E]3 | [B,E]2 [A,E] [D,D]2 [B,,F] | %16
 [E,E]2 [E,D] [A,,C]2 |] %17

